X: 141
T: Miss Willis's Strathspey
C: by D.Mackenzie
%O: 1795
%R: strathspey
Z: 2018 John Chambers <jc:trillian.mit.edu>
B: Wm. Campbell "10th Book of New and Favorite Country Dances, Strathspey Reels" 1795 p.14
F: https://archive.org/details/campbellstenthbo00camp
N: Fixed incorrect length of the bass d note in bar 10.
M: C
L: 1/16
K: G
%%slurgraces yes
%%graceslurs yes
% - - - - - - - - - - - - - - - - - - - - - - - - -
% Voice 1 arranged for small-scale proofreading
V: 1 staves=2
B2 |\
GB3d3B {f}g3Tde3g | GB3{Bc}d3B (c2A2A2c2) |\
GABc d2B2 {ef}g3Tde3g | d3B{f}g3d B2G2G2 :|
g2 |\
b3ga3f {f}g3de3g | dB3 {ef}Tg3B c2A2-A2g2 |\
b3Tga3f {f}g3Tde3g | d3B{f}g2c2 B2G2-G2g2 |
(bagf) g2d2 eg3d3B | ca3B3g a2A2-A2B2 |\
G3Bd3B e3Tc{ef}g3e | dB3{ef}g3d B2G2G2 |]
% - - - - - - - - - - - - - - - - - - - - - - - - -
% Voice 1 preserves the original staff layout
V: 2 clef=bass middle=d
z2 | G4G4 g4g4 | d'2g2b2g2 d4d4 | G4G4 g4g4 | g4d4 g4G2 :|
z2 | G4d4 g4c4 | B4G4 d4d4 | g4d4 G4c4 | B2G2B2d2 g4G4 |
g4c'4 c'4b2g2 | a4g2b2 d6z2 | G4g4 c'4c4 | g2G2B2d2 g4G2 |]
% - - - - - - - - - - - - - - - - - - - - - - - - -
%%begintext align
%% Cast off 2 Cu. up again to the top turn
%% your partner with the right hand &
%% left Lead down the middle up again
%% & Poussett with the 2d Cu.
%%endtext
% - - - - - - - - - - - - - - - - - - - - - - - - -

%%sep 1 1 500
%%sep 1 1 500

